assets/svg/10x10/restroom.svg

<svg xmlns="http://www.w3.org/2000/svg" viewBox="0 -0.5 10 10" shape-rendering="crispEdges"><path stroke="#000" d="M1 0h2m4 0h2M1 1h2m4 0h2M0 3h4m3 0h2M0 4h4m3 0h2M0 5h4m3 0h2M0 6h4m2 0h4M1 7h2m3 0h4M1 8h2m4 0h2M1 9h2m4 0h2"/></svg>

<svg xmlns="http://www.w3.org/2000/svg" viewBox="0 -0.5 10 10" shape-rendering="crispEdges">
<metadata>Made with Pixels to Svg https://codepen.io/shshaw/pen/XbxvNj</metadata>
<path stroke="#ffffff" d="M0 0h1M3 0h4M9 0h1M0 1h1M3 1h4M9 1h1M0 2h10M4 3h3M9 3h1M4 4h3M9 4h1M4 5h3M9 5h1M4 6h2M0 7h1M3 7h3M0 8h1M3 8h4M9 8h1M0 9h1M3 9h4M9 9h1" />
<path stroke="#000000" d="M1 0h2M7 0h2M1 1h2M7 1h2M0 3h4M7 3h2M0 4h4M7 4h2M0 5h4M7 5h2M0 6h4M6 6h4M1 7h2M6 7h4M1 8h2M7 8h2M1 9h2M7 9h2" />
</svg>
